X:1
T:Title
%%score [ ( 1 2 ) ( 3 4 ) ]
L:1/8
M:3/4
K:C
V:1 treble nm=" " snm=" "
V:2 treble 
V:3 bass nm="Midi_74"
V:4 bass 
V:1
[K:G]"^Words: Charles Wesley (1707-88)" D4 D2 | E4 E2 | (D2"^Love divine" G2) B2 | B4 A2 | %4
w: Love di-|vine, all|loves * ex-|cell- ing,|
w: Come, al-|might- y|to * de-|liv- er,|
 G4"^Tune: Blaenwern\nWilliam P. Rowlands (1860-1937)" F2 | E4 D2 | (D2 F2) E2 | D6 || D4 D2 | %9
w: joy of|heav'n to|earth * come|down,|fix in|
w: let us|all thy|life * re-|ceive;|sud- den-|
 E4 E2 | (D2 G2) B2 | B4 A2 | G4 A2 | (B2 c2) A2 | G4 F2 | G6 || B4 B2 | (B2 G2) B2 | (c2 B2) A2 | %19
w: us thy|hum * ble|dwell- ing,|all thy|faith * ful|mer- cies|crown.|Je- su,|thou * art|all * com-|
w: ly re-|turn, * and|ne- ver,|ne- ver|more * thy|tem- ples|leave.|Thee we|would * be|al * ways|
 B4 B2 | d4 d2 | (d2 B2) d2 | (e2 d2) ^c2 | d6 || e4 c2 | d4 B2 | (d2 c2) B2 | B4 A2 | G4 A2 | %29
w: pas- sion,|pure un-|boun * ded|love * thou|art.|Vis- it|us with|thy * sal-|va- tion,|en- ter|
w: bless- ing,|serve thee|as * thy|hosts * a-|bove,|pray and|praise thee|with * out|ceas- ing,|glo- ry|
 (B2 c2) A2 | G4 F2 | G6 | D4 D2 | E4 E2 | (D2 G2) B2 | B4 A2 | G4 F2 | E4 D2 | (D2 F2) E2 | D6 | %40
w: ev' * ry|trem- bling|heart.|Fin- ish|then thy|new * cre-|a- tion,|pure and|spot- less|let * us|be;|
w: in * thy|per- fect|love.|||||||||
 D4 D2 | E4 E2 | (D2 G2) B2 | B4 A2 | G4 A2 | (B2 c2) A2 | G4 F2 | G6 | (B2 d2) ^d2 | e4 =f2 | %50
w: let us|see thy|great * sal-|va- tion,|per- fect-|ly * re-|stored in|thee,|changed * from|glo- ry|
w: ||||||||||
 (e2 d2) c2 | (B2 c2) d2 | (d2 e2) f2 | g4 d2 | (g2 f2) e2 | f6 | e4 f2 | (g2 d2) B2 | A4 Bc | %59
w: in * to|glo * ry,|till * in|heav'n we|take * our|place,|till we|cast * our|crowns be *|
w: |||||||||
 (d2 e2) f2 | g4 e2 | d4 e2 | (A2 B2) c2 | B6 |] %64
w: fore * thee,|lost in|won- der,|love, * and|praise.|
w: |||||
V:2
[K:G] B,4 B,2 | C4 C2 | (B,2 D2) D2 | D4 D2 | (B,2 E2) ^D2 | E4 B,2 | (A,2 D2) ^C2 | D6 || %8
 B,4 B,2 | C4 C2 | (B,2 D2) D2 | D4 D2 | B,4 D2 | (D2 E2) E2 | D4 D2 | D6 || D4 ^D2 | E4 G2 | %18
 G4 F2 | G4 G2 | G4 F2 | G4 A2 | (G2 F2) EG | F6 || G4 F2 | G4 G2 | A4 G2 | G4 F2 | G4 F2 | G4 E2 | %30
 D4 D2 | D6 | x6 | x6 | x6 | x6 | x6 | x6 | x6 | x6 | x6 | x6 | x6 | x6 | x6 | x6 | x6 | x6 | x6 | %49
 x6 | x6 | x6 | x6 | x6 | x6 | x6 | x6 | x6 | x6 | x6 | x6 | x6 | x6 | x6 |] %64
V:3
[K:G] G,4 G,2 | G,4 G,2 | (G,2 B,2) G,2 | G,4 F,2 | (G,2 B,2) A,2 | G,4 G,2 | (F,2 A,2) G,2 | %7
 F,6 || G,4 G,2 | G,4 G,2 | (G,2 B,2) G,2 | G,4 F,2 | G,4 F,2 | G,4 A,2 | B,4 A,C | B,6 || %16
 B,4 A,2 | (G,2 B,2) D2 | (E2 D2) D2 | D4 D2 | D4 C2 | (B,2 D2) A,2 | (B,2 A,2) A,2 | A,6 || %24
 C4 C2 | B,4 D2 | D4 D2 | D4 D2 | (D2 E2) C2 | (D2 G,2) C2 | B,4 A,C |"^Verse 3 overleaf" B,6 | %32
 D4 D2 | E4 E2 | (D2 G2) B2 | B4 A2 | G4 F2 | E4 D2 | (D2 F2) E2 | D6 | D4 D2 | E4 E2 | %42
 (D2 G2) B2 | B4 A2 | G4 A2 | (B2 c2) A2 | G4 F2 | G6 | B4 B2 | (B2 G2) B2 | (c2 B2) A2 | B4 B2 | %52
 d4 d2 | (d2 B2) d2 | (e2 d2) ^c2 | d6 | e4 c2 | d4 B2 | (d2 c2) B2 | B4 A2 | G4 A2 | %61
"^Descant by Andrew Sims\nHarmony as for vv. 1 and 2" (B2 c2) A2 | G4 F2 | G6 |] %64
V:4
[K:G] G,,4 G,,2 | G,,4 G,,2 | G,,4 G,,2 | D,4 D,2 | E,4 B,,2 | C,4 G,,2 | A,,4 A,,2 | D,6 || %8
 G,,4 G,,2 | C,4 C,2 | G,,4 G,,2 | D,4 D,2 | E,4 D,2 | (G,2 C,2) C,2 | D,4 D,2 | G,,6 || G,4 F,2 | %17
 E,4 D,2 | (C,2 D,2) D,2 | G,4 G,2 | B,4 A,2 | G,4 F,2 | (E,2 A,2) A,,2 | D,6 || C4 A,2 | B,4 G,2 | %26
 F,4 G,2 | D,4 D,2 | (B,2 C2) A,2 | (G,2 E,2) C,2 | D,4 D,2 | G,,6 | x6 | x6 | x6 | x6 | x6 | x6 | %38
 x6 | x6 | x6 | x6 | x6 | x6 | x6 | x6 | x6 | x6 | x6 | x6 | x6 | x6 | x6 | x6 | x6 | x6 | x6 | %57
 x6 | x6 | x6 | x6 | x6 | x6 | x6 |] %64

